img/components/text_inputs_states.svg

<?xml version="1.0" encoding="UTF-8"?>
<svg xmlns="http://www.w3.org/2000/svg" xmlns:xlink="http://www.w3.org/1999/xlink" width="467" height="216" viewBox="0 0 467 216">
	<title>
		text_inputs_states
	</title>
	<defs>
		<rect id="path-1" width="272" height="32" x="0" y="0" rx="2"/>
		<circle id="path-2" cx="6" cy="6" r="6"/>
		<path id="path-4" d="M6.13211402,11.2688979 L10.8422354,11.5297995 C11.562075,11.4497464 11.7406967,10.9613193 11.2389527,10.443935 L0.591868541,0.301190754 C0.0905803995,-0.216377736 0.0269163636,-0.0499300062 0.0256689588,0.670145757 L2.29782166e-06,14.9845005 C-0.00119676849,15.7053522 0.467038737,15.932432 1.04000173,15.490159 L3.78168123,12.217739 C3.87724299,12.1438668 3.98988305,12.0715788 4.10864258,12 L7.07900942,19.5168621 C7.24412875,19.9268592 7.74262137,20.1120195 8.19190947,19.929965 C8.64097423,19.7493265 8.87107252,19.2695313 8.70554568,18.8604942 L5.73444213,11.3418087 L6.13211402,11.2688979 Z"/>
		<filter id="filter-5" width="220.2%" height="165%" x="-56.2%" y="-22.5%" filterUnits="objectBoundingBox">
			<feMorphology in="SourceAlpha" operator="dilate" radius="1" result="shadowSpreadOuter1"/>
			<feOffset dy="1" in="shadowSpreadOuter1" result="shadowOffsetOuter1"/>
			<feGaussianBlur in="shadowOffsetOuter1" result="shadowBlurOuter1" stdDeviation=".5"/>
			<feComposite in="shadowBlurOuter1" in2="SourceAlpha" operator="out" result="shadowBlurOuter1"/>
			<feColorMatrix in="shadowBlurOuter1" result="shadowMatrixOuter1" values="0 0 0 0 0   0 0 0 0 0   0 0 0 0 0  0 0 0 0.582908741 0"/>
			<feMorphology in="SourceAlpha" operator="dilate" radius="1" result="shadowSpreadOuter2"/>
			<feOffset dy="2" in="shadowSpreadOuter2" result="shadowOffsetOuter2"/>
			<feGaussianBlur in="shadowOffsetOuter2" result="shadowBlurOuter2" stdDeviation="1.5"/>
			<feComposite in="shadowBlurOuter2" in2="SourceAlpha" operator="out" result="shadowBlurOuter2"/>
			<feColorMatrix in="shadowBlurOuter2" result="shadowMatrixOuter2" values="0 0 0 0 0   0 0 0 0 0   0 0 0 0 0  0 0 0 0.179347826 0"/>
			<feMerge>
				<feMergeNode in="shadowMatrixOuter1"/>
				<feMergeNode in="shadowMatrixOuter2"/>
			</feMerge>
		</filter>
	</defs>
	<g id="Artboard-page" fill="none" fill-rule="evenodd" stroke="none" stroke-width="1">
		<g id="WikimediaUI-components_overview" transform="translate(-7359 -255)">
			<rect width="14720" height="3264" fill="#FFF"/>
			<g id="TEXT-INPUT-FIELDS" transform="translate(7359 142)">
				<g id="Text-Input-X" transform="translate(1 114)">
					<g id="Text-input-/-:disabled" transform="translate(192 168)">
						<rect id="Input" width="271" height="31" x=".5" y=".5" fill="#EAECF0" fill-rule="evenodd" stroke="#C8CCD1" stroke-width="1" rx="2"/>
						<text id="Placeholder-text" fill="#72777D" font-family="HelveticaNeue, Helvetica Neue, sans-serif" font-size="16" font-weight="normal">
							<tspan x="9" y="22">Placeholder text</tspan>
						</text>
					</g>
					<g id="Textfield_active" transform="translate(192 56)">
						<rect id="Mediawiki.Neutral.Hover-14" width="271" height="31" x=".5" y=".5" fill="#FFF" stroke="#72777D" rx="2"/>
						<text id="Your-input" fill="#72777D" font-family="HelveticaNeue, Helvetica Neue, sans-serif" font-size="16" font-weight="normal">
							<tspan x="9" y="22">Your input</tspan>
						</text>
						<path id="Imported-Layers-50" fill="#000" d="M216.584293,28.0515747 L216.584293,35.9631041 C216.575116,36.5952218 216.128646,37.2979277 215.380763,38.010163 C215.107587,38.2706336 214.81394,38.5131041 214.51994,38.7308689 C214.417234,38.8071041 214.32194,38.8748689 214.236881,38.9327512 C214.207234,38.9528689 214.181116,38.9705159 214.158881,38.9849865 C214.145822,38.9934571 214.137352,38.9991041 214.133469,39.0015747 C213.998293,39.0876924 213.959469,39.2652218 214.046999,39.3982806 C214.134528,39.5313394 214.314881,39.5694571 214.450411,39.4833394 C214.472999,39.4688689 214.513587,39.4423983 214.568999,39.4046336 C214.660411,39.342163 214.762058,39.270163 214.871116,39.1893394 C215.183116,38.958163 215.494763,38.7005159 215.786999,38.4223983 C216.26594,37.9660453 216.639705,37.5072218 216.877234,37.0491041 C217.114763,37.5103983 217.487822,37.96781 217.964999,38.4223983 C218.256881,38.7005159 218.568881,38.958163 218.880528,39.1893394 C218.98994,39.270163 219.091587,39.342163 219.182999,39.4046336 C219.238411,39.4423983 219.278999,39.4688689 219.301587,39.4833394 C219.436763,39.5694571 219.617469,39.5313394 219.704999,39.3982806 C219.792528,39.2652218 219.753705,39.0876924 219.618528,39.0015747 C219.614646,38.9991041 219.606175,38.9934571 219.593116,38.9849865 C219.570881,38.9705159 219.544763,38.9528689 219.515116,38.9327512 C219.429705,38.8748689 219.334763,38.8071041 219.232058,38.7308689 C218.938058,38.5131041 218.644411,38.2706336 218.370881,38.010163 C217.623352,37.2979277 217.176881,36.5952218 217.167705,35.98181 L217.167705,28.0515747 L218.510646,28.0515747 C218.671587,28.0515747 218.802175,27.9231041 218.802175,27.7646336 C218.802175,27.606163 218.671587,27.4776924 218.510646,27.4776924 L217.167705,27.4776924 L217.167705,19.5665159 C217.167705,18.9396924 217.614881,18.2288689 218.370528,17.5120453 C218.643705,17.2529865 218.937352,17.0122806 219.230999,16.7962806 C219.333705,16.7207512 219.428646,16.6540453 219.514058,16.5965159 C219.543352,16.5767512 219.569469,16.5594571 219.591705,16.5449865 C219.604763,16.5365159 219.613234,16.5312218 219.617116,16.5287512 C219.752646,16.4436924 219.792528,16.266163 219.705705,16.1323983 C219.619234,15.9989865 219.438881,15.95981 219.302999,16.0452218 C219.280058,16.0593394 219.239822,16.08581 219.184058,16.1232218 C219.092646,16.1849865 218.990999,16.2562806 218.881587,16.3367512 C218.569587,16.56581 218.257587,16.8220453 217.965352,17.0991041 C217.487116,17.5526336 217.113352,18.0111041 216.875822,18.4699277 C216.638646,18.0111041 216.264881,17.5526336 215.786293,17.0991041 C215.494411,16.8220453 215.182411,16.56581 214.870411,16.3367512 C214.760999,16.2562806 214.659352,16.1849865 214.56794,16.1232218 C214.512175,16.08581 214.471587,16.0593394 214.448999,16.0452218 C214.313116,15.95981 214.132763,15.9989865 214.04594,16.1323983 C213.959116,16.266163 213.998999,16.4436924 214.134881,16.5287512 C214.138763,16.5312218 214.147234,16.5365159 214.15994,16.5449865 C214.182528,16.5594571 214.208646,16.5767512 214.23794,16.5965159 C214.322999,16.6540453 214.418293,16.7207512 214.520999,16.7962806 C214.814646,17.0122806 215.108293,17.2529865 215.381469,17.5120453 C216.137116,18.2288689 216.584293,18.9396924 216.584293,19.5665159 L216.584293,27.4776924 L215.083587,27.4776924 C214.922646,27.4776924 214.792058,27.606163 214.792058,27.7646336 C214.792058,27.9231041 214.922646,28.0515747 215.083587,28.0515747 L216.584293,28.0515747"/>
					</g>
					<g id="Text-input-/-:focus" transform="translate(192 112)">
						<g id="border:focus" stroke="#36C" stroke-linejoin="square">
							<rect width="270" height="30" x="1" y="1" stroke-width="2" rx="2"/>
							<rect width="271" height="31" x=".5" y=".5" rx="2"/>
						</g>
						<text id="Providing-input" fill="#222" font-family="HelveticaNeue, Helvetica Neue, sans-serif" font-size="16" font-weight="normal">
							<tspan x="9" y="21">Providing input</tspan>
						</text>
						<g id="🔣-Icon/20x20-sp-placeholder-transparent" transform="translate(247 10)">
							<mask id="mask-3" fill="#fff">
								<use xlink:href="#path-2"/>
							</mask>
							<use id="shape-2" fill="#000" fill-rule="evenodd" opacity="0" xlink:href="#path-2"/>
							<g id="🎨-Color/Base-transparent" fill="#000" fill-rule="evenodd" mask="url(#mask-3)" opacity="0">
								<rect id="Rectangle-1" width="12" height="12" x="0" y="0"/>
							</g>
						</g>
						<line id="input-cursor" x1="118.5" x2="118.5" y1="6.5" y2="24.438" stroke="#000" stroke-linecap="square" stroke-width="1"/>
					</g>
					<g id="Text-input-/-!default" transform="translate(192)">
						<rect id="border" width="271" height="31" x=".5" y=".5" fill="#FFF" fill-rule="evenodd" stroke="#A2A9B1" stroke-width="1" rx="2"/>
						<text id="Placeholder-text" fill="#72777D" font-family="HelveticaNeue, Helvetica Neue, sans-serif" font-size="16" font-weight="normal">
							<tspan x="9" y="22">Your input</tspan>
						</text>
					</g>
					<g id="Cursor-/-!default" transform="translate(402 191)">
						<g id="Cursor">
							<use fill="#000" filter="url(#filter-5)" xlink:href="#path-4"/>
							<path fill="#000" stroke="#FFF" d="M6.44805157,11.7871647 L9.16903318,18.6729326 C9.44237709,19.3483989 9.07500287,20.1136726 8.37968284,20.3933668 C7.68317947,20.6755944 6.8877013,20.3802565 6.61399912,19.7006158 L3.90605662,12.8478493 L1.42326646,15.8112636 L1.34552169,15.8859589 C0.444640548,16.5813536 -0.501889691,16.1215055 -0.499996898,14.983604 L-0.474330291,0.669279596 C-0.473259969,0.051426302 -0.447188468,-0.15148568 -0.202577288,-0.35941243 C0.196479729,-0.698622715 0.490703685,-0.521940513 0.936743625,-0.0608329699 L11.5978897,10.0958485 C12.390083,10.912736 12.0289467,11.9009082 10.8145819,12.0290342 L6.44805157,11.7871647 Z"/>
						</g>
					</g>
					<text id="Normal-Hover-Active" fill="#72777D" font-family="Lato-Regular, Lato, sans-serif" font-size="14" font-weight="normal">
						<tspan x="0" y="22">Normal</tspan> <tspan x="0" y="78.1">Hover</tspan> <tspan x="0" y="134.2">Active &amp;</tspan> <tspan x="0" y="152.9">Focus</tspan> <tspan x="0" y="190.3">Disabled</tspan>
					</text>
				</g>
			</g>
		</g>
	</g>
</svg>

<?xml version="1.0" encoding="UTF-8"?>
<svg xmlns="http://www.w3.org/2000/svg" xmlns:xlink="http://www.w3.org/1999/xlink" width="467" height="216" viewBox="0 0 467 216">
	<title>
		text_inputs_states
	</title>
	<defs>
		<filter id="filter-5" width="220.2%" height="165%" x="-56.2%" y="-22.5%" filterUnits="objectBoundingBox">
			<feMorphology in="SourceAlpha" operator="dilate" radius="1" result="shadowSpreadOuter1"/>
			<feOffset dy="1" in="shadowSpreadOuter1" result="shadowOffsetOuter1"/>
			<feGaussianBlur in="shadowOffsetOuter1" result="shadowBlurOuter1" stdDeviation=".5"/>
			<feComposite in="shadowBlurOuter1" in2="SourceAlpha" operator="out" result="shadowBlurOuter1"/>
			<feColorMatrix in="shadowBlurOuter1" result="shadowMatrixOuter1" values="0 0 0 0 0 0 0 0 0 0 0 0 0 0 0 0 0 0 0.582908741 0"/>
			<feMorphology in="SourceAlpha" operator="dilate" radius="1" result="shadowSpreadOuter2"/>
			<feOffset dy="2" in="shadowSpreadOuter2" result="shadowOffsetOuter2"/>
			<feGaussianBlur in="shadowOffsetOuter2" result="shadowBlurOuter2" stdDeviation="1.5"/>
			<feComposite in="shadowBlurOuter2" in2="SourceAlpha" operator="out" result="shadowBlurOuter2"/>
			<feColorMatrix in="shadowBlurOuter2" result="shadowMatrixOuter2" values="0 0 0 0 0 0 0 0 0 0 0 0 0 0 0 0 0 0 0.179347826 0"/>
			<feMerge>
				<feMergeNode in="shadowMatrixOuter1"/>
				<feMergeNode in="shadowMatrixOuter2"/>
			</feMerge>
		</filter>
		<circle id="path-2" cx="6" cy="6" r="6"/>
		<rect id="path-1" width="272" height="32" x="0" y="0" rx="2"/>
		<path id="path-4" d="M6.132 11.269l4.71.26c.72-.08.899-.568.397-1.085L.592.3C.09-.216.027-.049.026.671L0 14.984c-.001.72.467.947 1.04.505l2.742-3.272c.095-.074.208-.146.327-.218l2.97 7.517c.165.41.664.595 1.113.413.449-.18.68-.66.514-1.07l-2.972-7.518.398-.073z"/>
	</defs>
	<g id="Artboard-page" fill="none" fill-rule="evenodd" stroke="none" stroke-width="1">
		<g id="WikimediaUI-components_overview" transform="translate(-7359 -255)">
			<path fill="#FFF" d="M0 0h14720v3264H0z"/>
			<g id="TEXT-INPUT-FIELDS" transform="translate(7359 142)">
				<g id="Text-Input-X" transform="translate(1 114)">
					<g id="Text-input-/-:disabled" transform="translate(192 168)">
						<rect id="Input" width="271" height="31" x=".5" y=".5" fill="#EAECF0" fill-rule="evenodd" stroke="#C8CCD1" stroke-width="1" rx="2"/>
						<text id="Placeholder-text" fill="#72777D" font-family="HelveticaNeue, Helvetica Neue, sans-serif" font-size="16" font-weight="normal">
							<tspan x="9" y="22">Placeholder text</tspan>
						</text>
					</g>
					<g id="Textfield_active" transform="translate(192 56)">
						<rect id="Mediawiki.Neutral.Hover-14" width="271" height="31" x=".5" y=".5" fill="#FFF" stroke="#72777D" rx="2"/>
						<text id="Your-input" fill="#72777D" font-family="HelveticaNeue, Helvetica Neue, sans-serif" font-size="16" font-weight="normal">
							<tspan x="9" y="22">Your input</tspan>
						</text>
						<path id="Imported-Layers-50" fill="#000" d="M216.584 28.052v7.911c-.009.632-.455 1.335-1.203 2.047a9.12 9.12 0 01-1.222.975l-.026.017a.284.284 0 00-.086.396.295.295 0 00.403.085 9.725 9.725 0 00.42-.294 9.78 9.78 0 00.917-.767c.479-.456.853-.915 1.09-1.373.238.461.61.919 1.088 1.373a9.776 9.776 0 001.337 1.061.295.295 0 00.403-.085.284.284 0 00-.086-.396l-.026-.017a8.2 8.2 0 01-.361-.254 9.168 9.168 0 01-.861-.72c-.748-.713-1.194-1.416-1.203-2.03v-7.93h1.343a.29.29 0 00.291-.286.29.29 0 00-.291-.287h-1.343v-7.911c0-.627.447-1.338 1.203-2.055a9.048 9.048 0 011.22-.967l.026-.016a.284.284 0 00.089-.397.294.294 0 00-.403-.087 9.3 9.3 0 00-.421.292c-.312.229-.624.485-.917.762-.478.454-.852.912-1.09 1.37-.236-.458-.61-.916-1.089-1.37a9.52 9.52 0 00-1.337-1.054.295.295 0 00-.403.087.284.284 0 00.089.397l.025.016c.023.014.049.032.078.052a9.048 9.048 0 011.144.916c.755.716 1.202 1.427 1.202 2.054v7.91h-1.5a.29.29 0 00-.292.288c0 .158.13.287.292.287h1.5"/>
					</g>
					<g id="Text-input-/-:focus" transform="translate(192 112)">
						<g id="border:focus" stroke="#36C" stroke-linejoin="square">
							<rect width="270" height="30" x="1" y="1" stroke-width="2" rx="2"/>
							<rect width="271" height="31" x=".5" y=".5" rx="2"/>
						</g>
						<text id="Providing-input" fill="#222" font-family="HelveticaNeue, Helvetica Neue, sans-serif" font-size="16" font-weight="normal">
							<tspan x="9" y="21">Providing input</tspan>
						</text>
						<g id="🔣-Icon/20x20-sp-placeholder-transparent" transform="translate(247 10)">
							<mask id="mask-3" fill="#fff">
								<use xlink:href="#path-2"/>
							</mask>
						</g>
						<path id="input-cursor" stroke="#000" stroke-linecap="square" stroke-width="1" d="M118.5 6.5v17.938"/>
					</g>
					<g id="Text-input-/-!default" transform="translate(192)">
						<rect id="border" width="271" height="31" x=".5" y=".5" fill="#FFF" fill-rule="evenodd" stroke="#A2A9B1" stroke-width="1" rx="2"/>
						<text id="Placeholder-text" fill="#72777D" font-family="HelveticaNeue, Helvetica Neue, sans-serif" font-size="16" font-weight="normal">
							<tspan x="9" y="22">Your input</tspan>
						</text>
					</g>
					<g id="Cursor-/-!default" transform="translate(402 191)">
						<g id="Cursor" fill="#000">
							<use filter="url(#filter-5)" xlink:href="#path-4"/>
							<path stroke="#FFF" d="M6.448 11.787l2.721 6.886c.273.675-.094 1.44-.79 1.72-.696.283-1.491-.013-1.765-.692l-2.708-6.853-2.483 2.963-.077.075c-.901.695-1.848.236-1.846-.902L-.474.669c0-.618.027-.82.271-1.028.4-.34.694-.163 1.14.298l10.66 10.157c.793.817.432 1.805-.782 1.933l-4.367-.242z"/>
						</g>
					</g>
					<text id="Normal-Hover-Active" fill="#72777D" font-family="Lato-Regular, Lato, sans-serif" font-size="14" font-weight="normal">
						<tspan x="0" y="22">Normal</tspan> <tspan x="0" y="78.1">Hover</tspan> <tspan x="0" y="134.2">Active &amp;</tspan> <tspan x="0" y="152.9">Focus</tspan> <tspan x="0" y="190.3">Disabled</tspan>
					</text>
				</g>
			</g>
		</g>
	</g>
</svg>
